findly-builder/apps/searchassist/src/assets/icons/overview/document.svg

<svg width="23" height="23" viewBox="0 0 23 23" fill="none" xmlns="http://www.w3.org/2000/svg">
<path d="M17.2507 8.14551V20.1247C17.2507 20.6542 16.8218 21.083 16.2923 21.083H4.79232C4.26284 21.083 3.83398 20.6542 3.83398 20.1247V4.79134C3.83398 4.26186 4.26284 3.83301 4.79232 3.83301H12.9382L17.2507 8.14551Z" fill="#93D3A2"/>
<path opacity="0.05" d="M4.79102 3.83301H17.2493V20.1247H6.55483C5.58068 20.1247 4.79102 19.335 4.79102 18.3609V3.83301Z" fill="#3C4043"/>
<path opacity="0.07" d="M5.27148 3.83301H14.8265C16.1653 3.83301 17.2507 4.91832 17.2507 6.25711V19.6455H6.63184C5.88051 19.6455 5.27148 19.0365 5.27148 18.2852V3.83301Z" fill="#3C4043"/>
<path d="M19.1667 6.70866V18.2087C19.1667 18.7381 18.7378 19.167 18.2083 19.167H6.70833C6.17885 19.167 5.75 18.7381 5.75 18.2087V2.87533C5.75 2.34585 6.17885 1.91699 6.70833 1.91699H14.375L19.1667 6.70866Z" fill="#93D3A2"/>
<path d="M14.375 1.91699V5.75033C14.375 6.2798 14.8039 6.70866 15.3333 6.70866H19.1667L14.375 1.91699Z" fill="#135423"/>
<path d="M16.6365 9.47042H8.392C8.24031 9.47042 8.11719 9.39465 8.11719 9.3013V8.96306C8.11719 8.86971 8.24031 8.79395 8.392 8.79395H16.6365C16.7882 8.79395 16.9113 8.86971 16.9113 8.96306V9.3013C16.9113 9.39465 16.7882 9.47042 16.6365 9.47042Z" fill="#135423"/>
<path d="M16.6365 11.5002H8.392C8.24031 11.5002 8.11719 11.4244 8.11719 11.3311V10.9928C8.11719 10.8995 8.24031 10.8237 8.392 10.8237H16.6365C16.7882 10.8237 16.9113 10.8995 16.9113 10.9928V11.3311C16.9113 11.4244 16.7882 11.5002 16.6365 11.5002Z" fill="#135423"/>
<path d="M16.6365 13.5295H8.392C8.24031 13.5295 8.11719 13.4537 8.11719 13.3604V13.0221C8.11719 12.9288 8.24031 12.853 8.392 12.853H16.6365C16.7882 12.853 16.9113 12.9288 16.9113 13.0221V13.3604C16.9113 13.4537 16.7882 13.5295 16.6365 13.5295Z" fill="#135423"/>
<path d="M13.9517 15.5588H8.37086C8.23083 15.5588 8.11719 15.483 8.11719 15.3897V15.0514C8.11719 14.9581 8.23083 14.8823 8.37086 14.8823H13.9517C14.0918 14.8823 14.2054 14.9581 14.2054 15.0514V15.3897C14.2054 15.483 14.0918 15.5588 13.9517 15.5588Z" fill="#135423"/>
</svg>

<svg width="23" height="23" fill="none" xmlns="http://www.w3.org/2000/svg"><path d="M17.25 8.146v11.979c0 .53-.428.958-.958.958h-11.5a.958.958 0 0 1-.958-.958V4.79c0-.53.429-.958.958-.958h8.146l4.313 4.313Z" fill="#93D3A2"/><path opacity=".05" d="M4.791 3.833h12.458v16.292H6.555c-.974 0-1.764-.79-1.764-1.764V3.833Z" fill="#3C4043"/><path opacity=".07" d="M5.271 3.833h9.555a2.424 2.424 0 0 1 2.425 2.424v13.388H6.63a1.36 1.36 0 0 1-1.36-1.36V3.833Z" fill="#3C4043"/><path d="M19.167 6.709v11.5c0 .53-.43.958-.959.958h-11.5a.958.958 0 0 1-.958-.958V2.875c0-.53.429-.958.958-.958h7.667l4.792 4.792Z" fill="#93D3A2"/><path d="M14.375 1.917V5.75c0 .53.429.959.958.959h3.834l-4.792-4.792Zm2.262 7.553H8.392c-.152 0-.275-.075-.275-.169v-.338c0-.093.123-.169.275-.169h8.245c.151 0 .274.076.274.17V9.3c0 .094-.123.17-.274.17Zm0 2.03H8.392c-.152 0-.275-.076-.275-.169v-.338c0-.094.123-.17.275-.17h8.245c.151 0 .274.076.274.17v.338c0 .093-.123.17-.274.17Zm0 2.03H8.392c-.152 0-.275-.076-.275-.17v-.338c0-.093.123-.169.275-.169h8.245c.151 0 .274.076.274.17v.337c0 .094-.123.17-.274.17Zm-2.685 2.029H8.37c-.14 0-.254-.076-.254-.17v-.338c0-.093.114-.169.254-.169h5.58c.14 0 .254.076.254.17v.338c0 .093-.113.169-.253.169Z" fill="#135423"/></svg>
